gui/resources/file_sharing/content_filetype_archive.svg

<svg width="44" height="44" viewBox="0 0 44 44" fill="none" xmlns="http://www.w3.org/2000/svg">
<path fill-rule="evenodd" clip-rule="evenodd" d="M22 11V13H24V11H32C32.2652 11 32.5196 11.1054 32.7071 11.2929C32.8946 11.4804 33 11.7348 33 12V32C33 32.2652 32.8946 32.5196 32.7071 32.7071C32.5196 32.8946 32.2652 33 32 33H12C11.7348 33 11.4804 32.8946 11.2929 32.7071C11.1054 32.5196 11 32.2652 11 32V12C11 11.7348 11.1054 11.4804 11.2929 11.2929C11.4804 11.1054 11.7348 11 12 11H22ZM20 21V23H22V21H20ZM22 19V21H24V19H22ZM20 17V19H22V17H20ZM22 15V17H24V15H22ZM20 13V15H22V13H20ZM21.326 27.8H22.674L22.414 25.2H21.586L21.326 27.8V27.8ZM21.405 24H22.595C22.8429 24 23.082 24.0921 23.2658 24.2584C23.4497 24.4247 23.5652 24.6533 23.59 24.9L23.89 27.9C23.904 28.0391 23.8886 28.1795 23.845 28.3123C23.8014 28.445 23.7304 28.5672 23.6366 28.6708C23.5429 28.7745 23.4284 28.8573 23.3007 28.914C23.173 28.9707 23.0348 29 22.895 29H21.105C20.9652 29 20.827 28.9707 20.6993 28.914C20.5716 28.8573 20.4571 28.7745 20.3634 28.6708C20.2696 28.5672 20.1986 28.445 20.155 28.3123C20.1114 28.1795 20.096 28.0391 20.11 27.9L20.41 24.9C20.4348 24.6533 20.5503 24.4247 20.7342 24.2584C20.918 24.0921 21.1571 24 21.405 24V24Z" fill="#999"/>
</svg>

<svg xmlns="http://www.w3.org/2000/svg" width="44" height="44" viewBox="0 0 44 44">
    <g fill="none" fill-rule="evenodd">
        <circle cx="22" cy="22" r="22" fill="#FFBB34"/>
        <path d="M6 6h32v32H6z"/>
        <path fill="#FFF" d="M22 11v2h2v-2h8a1 1 0 0 1 1 1v20a1 1 0 0 1-1 1H12a1 1 0 0 1-1-1V12a1 1 0 0 1 1-1h10zm-2 10v2h2v-2h-2zm2-2v2h2v-2h-2zm-2-2v2h2v-2h-2zm2-2v2h2v-2h-2zm-2-2v2h2v-2h-2zm1.326 14.8h1.348l-.26-2.6h-.828l-.26 2.6zm.079-3.8h1.19a1 1 0 0 1 .995.9l.3 3a1 1 0 0 1-.995 1.1h-1.79a1 1 0 0 1-.995-1.1l.3-3a1 1 0 0 1 .995-.9z"/>
    </g>
</svg>
